X: 4
T: Farewell To Uist
R: waltz
M: 3/4
L: 1/8
K: Emin
e{a/}ed|!slide!B3A {c/}AG|{c/}AGE3G|A2{c/}A3!slide!B|e3e de|g3a {c'/}ag|
ed!slide!B2{c/}BD|!slide!G3 E{A/}ED|E3e{a}ed|!slide!B3d {c/}AG|{c/}AGE3G|A2{c/}A3!slide!B|
e3e de|{a/}g3a {c'/}ag|ed!slide!B2{c/}BD|!slide!G3B{c/}BA-|A4a2|{c'}a4b{c'}b|
{c'}age2{a/}eB|d3e{a/}g2|g3 gag|de ga {a/}ed|AB de {c/}AG|EG2 A{A/}ED|E4:|


Tune 8085	Setting 19298

